<?xml version="1.0" encoding="UTF-8"?>
<map version="1.1" tiledversion="2018.09.12" orientation="orthogonal" renderorder="right-down" width="14" height="13" tilewidth="80" tileheight="80" infinite="0" nextlayerid="6" nextobjectid="1">
 <tileset firstgid="1" source="TileSetCity.tsx"/>
 <layer id="2" name="MapGround" width="14" height="13">
  <data encoding="csv">
22,22,22,23,21,22,22,22,5,3,6,22,22,22,
22,22,22,5,6,22,22,22,23,9,21,22,22,22,
32,32,32,33,31,32,7,32,33,9,21,22,22,22,
10,10,10,10,10,10,4,10,10,9,21,22,22,22,
12,12,13,9,11,12,8,13,9,9,21,22,22,22,
22,22,23,9,21,22,22,23,9,9,31,32,32,32,
22,22,5,3,6,22,22,23,9,9,10,10,10,10,
22,22,23,9,21,22,22,23,9,9,11,12,12,12,
22,22,23,9,31,32,32,33,9,9,21,22,22,22,
32,32,33,9,11,12,12,13,9,9,21,22,22,22,
10,10,10,9,21,22,22,23,9,9,31,32,7,32,
12,12,13,9,21,22,22,23,9,9,10,10,4,10,
22,22,23,9,21,22,22,23,9,9,11,12,8,12
</data>
 </layer>
 <layer id="5" name="MapRoofs" width="14" height="13" visible="0">
  <data encoding="csv">
42,14,40,0,0,50,15,40,0,0,0,50,34,41,
49,49,48,0,0,47,49,48,0,0,0,50,16,43,
0,0,0,0,0,0,0,0,0,0,0,50,20,42,
0,0,0,0,0,0,0,0,0,0,0,50,17,36,
0,0,0,0,0,0,0,0,0,0,0,47,49,49,
39,38,0,0,0,37,38,0,0,0,0,0,0,0,
26,40,0,0,0,50,40,0,0,0,0,0,0,0,
43,40,0,0,0,47,48,0,0,0,0,0,0,0,
49,48,0,0,0,0,0,0,0,0,0,37,39,39,
0,0,0,0,0,0,0,0,0,0,0,47,49,49,
0,0,0,0,0,37,38,0,0,0,0,0,0,0,
0,0,0,0,0,50,40,0,0,0,0,0,0,0,
39,38,0,0,0,50,40,0,0,0,0,0,0,0
</data>
 </layer>
</map>
