<?xml version="1.0" encoding="UTF-8"?>
<map version="1.1" tiledversion="2018.09.12" orientation="orthogonal" renderorder="right-down" width="14" height="13" tilewidth="80" tileheight="80" infinite="0" nextlayerid="6" nextobjectid="1">
 <tileset firstgid="1" source="TileSetSides.tsx"/>
 <layer id="3" name="MapWalls" width="14" height="13">
  <data encoding="csv">
0,0,3,17,17,2,0,3,17,0,17,2,0,0,
9,9,11,21,22,10,9,11,21,0,20,2,0,0,
24,24,22,0,0,21,18,22,0,0,17,2,0,0,
0,0,0,0,0,0,0,0,0,0,20,2,0,0,
17,21,0,0,0,23,23,0,0,0,17,10,9,9,
5,7,22,0,21,6,7,17,0,0,0,19,18,19,
0,3,20,0,17,2,3,18,0,0,0,0,0,0,
0,3,18,0,22,10,11,19,0,0,0,17,20,17,
9,11,20,0,0,20,20,0,0,0,24,6,5,5,
19,22,0,0,0,22,21,0,0,0,24,10,9,9,
0,0,0,0,21,6,7,22,0,0,0,17,20,17,
20,17,0,0,17,2,3,17,0,0,0,0,0,0,
5,7,20,0,17,2,3,17,0,0,0,0,0,0
</data>
 </layer>
</map>
